svgs/duotone/arrows-repeat-1.svg

<svg xmlns="http://www.w3.org/2000/svg" viewBox="0 0 512 512"><!--! Font Awesome Pro 6.3.0 by @fontawesome - https://fontawesome.com License - https://fontawesome.com/license (Commercial License) Copyright 2023 Fonticons, Inc. --><defs><style>.fa-secondary{opacity:.4}</style></defs><path class="fa-primary" d="M264 320C277.3 320 288 309.3 288 296v-80c0-13.31-10.8-24.01-24.01-24.01c-2.546 0-5.111 .411-7.589 1.226l-24 8C222.3 204.6 215.1 213.9 215.1 223.1C215.1 237.3 226.8 248 240 248v48C240 309.3 250.8 320 264 320z"/><path class="fa-secondary" d="M165.2 160H416c17.67 0 31.99-14.31 31.99-32c0-8.188-3.115-16.38-9.365-22.62l-95.1-96C336.4 3.125 328.2 0 320 0c-17.05 0-31.1 13.73-31.1 32c0 8.188 3.125 16.38 9.375 22.62L338.8 96H165.2c-130.1 0-165.2 119.2-165.2 128C-.0003 241.7 14.39 256 32.01 256c13.41 0 25.89-8.469 30.36-21.88C77.13 189.8 118.5 160 165.2 160zM479.1 256c-13.41 0-25.89 8.469-30.36 21.88C434.9 322.2 393.5 352 346.8 352H96c-17.67 0-31.99 14.31-31.99 32c0 8.188 3.115 16.38 9.365 22.62l95.1 96C175.6 508.9 183.8 512 191.1 512c17.05 0 31.1-13.73 31.1-32c0-8.188-3.125-16.38-9.375-22.62L173.2 416h173.6c130.1 0 165.2-119.2 165.2-128C512 270.3 497.6 256 479.1 256z"/></svg>

<svg xmlns="http://www.w3.org/2000/svg" viewBox="0 0 512 512"><!-- Font Awesome Pro 6.0.0-alpha2 by @fontawesome - https://fontawesome.com License - https://fontawesome.com/license (Commercial License) --><defs><style>.fa-secondary{opacity:.4}</style></defs><path d="M512.001 287.99C512.001 270.303 497.609 256 479.988 256C466.582 256 454.098 264.469 449.629 277.875C434.865 322.219 393.537 352 346.805 352H96C78.328 352 64 366.312 64 384C64 392.188 67.125 400.375 73.375 406.625L169.371 502.625C175.621 508.875 183.809 512 191.996 512C209.049 512 223.996 498.269 223.996 480C223.996 471.812 220.871 463.625 214.621 457.375L173.246 416H346.805C477.759 416 512.001 296.807 512.001 287.99Z " class="fa-secondary"></path><path d="M263.99 192.001C261.444 192.001 258.884 192.404 256.407 193.219L232.407 201.219C222.349 204.592 215.997 213.941 215.997 223.991C215.997 237.331 226.819 248 240.001 248V296C240.001 309.25 250.751 320 264.001 320S288.001 309.25 288.001 296V216C288.001 202.687 277.195 192.001 263.99 192.001ZM438.626 105.375L342.63 9.375C336.38 3.125 328.192 0 320.005 0C302.951 0 288.005 13.731 288.005 32C288.005 40.188 291.13 48.375 297.38 54.625L338.755 96H165.196C34.242 96 0 215.193 0 224.01C0 241.697 14.392 256 32.012 256C45.419 256 57.903 247.531 62.372 234.125C77.135 189.781 118.464 160 165.196 160H416.001C433.673 160 448.001 145.688 448.001 128C448.001 119.812 444.876 111.625 438.626 105.375Z " class="fa-primary"></path></svg>
